groups/nitrogen/urea.svg

<?xml version='1.0' encoding='iso-8859-1'?>
<svg version='1.1' baseProfile='full'
              xmlns='http://www.w3.org/2000/svg'
                      xmlns:rdkit='http://www.rdkit.org/xml'
                      xmlns:xlink='http://www.w3.org/1999/xlink'
                  xml:space='preserve'
width='256px' height='256px' viewBox='0 0 256 256'>
<!-- END OF HEADER -->
<rect style='opacity:1.0;fill:#FFFFFF;stroke:none' width='256.0' height='256.0' x='0.0' y='0.0'> </rect>
<path class='bond-0 atom-0 atom-1' d='M 87.6,176.3 L 87.6,146.1' style='fill:none;fill-rule:evenodd;stroke:#000000;stroke-width:2.0px;stroke-linecap:butt;stroke-linejoin:miter;stroke-opacity:1' />
<path class='bond-1 atom-1 atom-2' d='M 78.0,125.5 L 58.0,114.0' style='fill:none;fill-rule:evenodd;stroke:#000000;stroke-width:2.0px;stroke-linecap:butt;stroke-linejoin:miter;stroke-opacity:1' />
<path class='bond-2 atom-1 atom-3' d='M 97.2,125.4 L 126.8,108.3' style='fill:none;fill-rule:evenodd;stroke:#000000;stroke-width:2.0px;stroke-linecap:butt;stroke-linejoin:miter;stroke-opacity:1' />
<path class='bond-3 atom-3 atom-4' d='M 130.2,110.3 L 130.2,78.2' style='fill:none;fill-rule:evenodd;stroke:#000000;stroke-width:2.0px;stroke-linecap:butt;stroke-linejoin:miter;stroke-opacity:1' />
<path class='bond-3 atom-3 atom-4' d='M 123.4,110.3 L 123.4,78.2' style='fill:none;fill-rule:evenodd;stroke:#000000;stroke-width:2.0px;stroke-linecap:butt;stroke-linejoin:miter;stroke-opacity:1' />
<path class='bond-4 atom-3 atom-5' d='M 126.8,108.3 L 156.4,125.4' style='fill:none;fill-rule:evenodd;stroke:#000000;stroke-width:2.0px;stroke-linecap:butt;stroke-linejoin:miter;stroke-opacity:1' />
<path class='bond-5 atom-5 atom-6' d='M 175.6,125.4 L 195.5,113.9' style='fill:none;fill-rule:evenodd;stroke:#000000;stroke-width:2.0px;stroke-linecap:butt;stroke-linejoin:miter;stroke-opacity:1' />
<path class='bond-6 atom-5 atom-7' d='M 166.0,146.0 L 166.0,166.6' style='fill:none;fill-rule:evenodd;stroke:#000000;stroke-width:2.0px;stroke-linecap:butt;stroke-linejoin:miter;stroke-opacity:1' />
<path d='M 125.3,109.2 L 126.8,108.3 L 128.3,109.2' style='fill:none;stroke:#000000;stroke-width:2.0px;stroke-linecap:butt;stroke-linejoin:miter;stroke-miterlimit:10;stroke-opacity:1;' />
<path class='atom-1' d='M110.263,176.257 C110.261,174.56 107.998,174.561 108,176.259 C108.001,177.956 105.738,177.958 105.736,176.261 C105.735,174.563 103.472,174.565 103.473,176.263 C103.474,177.96 101.211,177.962 101.21,176.264 C101.208,174.567 98.945,174.569 98.9464,176.266 C98.9477,177.964 96.6844,177.965 96.6831,176.268 C96.6817,174.571 94.4184,174.572 94.4198,176.27 C94.4212,177.967 92.1579,177.969 92.1565,176.272 C92.1551,174.574 89.8918,174.576 89.8932,176.273 C89.8946,177.971 87.6313,177.973 87.6299,176.275 C87.6286,174.578 85.3653,174.58 85.3666,176.277 C85.368,177.974 83.1047,177.976 83.1033,176.279 C83.102,174.581 80.8387,174.583 80.84,176.281 C80.8414,177.978 78.5781,177.98 78.5767,176.282 C78.5754,174.585 76.3121,174.587 76.3135,176.284 C76.3148,177.982 74.0515,177.984 74.0502,176.286 C74.0488,174.589 71.7855,174.59 71.7869,176.288 C71.7882,177.985 69.5249,177.987 69.5236,176.29 C69.5222,174.592 67.2589,174.594 67.2603,176.292 C67.2616,177.989 64.9984,177.991 64.997,176.293' style='fill:none;stroke:#7F7F7F;stroke-width:2.0px;stroke-linecap:butt;stroke-linejoin:miter;stroke-opacity:1' />
<text x='79.4' y='144.6' class='atom-1' style='font-size:27px;font-style:normal;font-weight:normal;fill-opacity:1;stroke:none;font-family:sans-serif;text-anchor:start;fill:#000000' >N</text>
<text x='12.8' y='122.0' class='atom-2' style='font-size:27px;font-style:normal;font-weight:normal;fill-opacity:1;stroke:none;font-family:sans-serif;text-anchor:start;fill:#000000' >H</text>
<text x='31.5' y='132.9' class='atom-2' style='font-size:17px;font-style:normal;font-weight:normal;fill-opacity:1;stroke:none;font-family:sans-serif;text-anchor:start;fill:#000000' >3</text>
<text x='40.2' y='122.0' class='atom-2' style='font-size:27px;font-style:normal;font-weight:normal;fill-opacity:1;stroke:none;font-family:sans-serif;text-anchor:start;fill:#000000' >C</text>
<text x='118.6' y='76.7' class='atom-4' style='font-size:27px;font-style:normal;font-weight:normal;fill-opacity:1;stroke:none;font-family:sans-serif;text-anchor:start;fill:#000000' >O</text>
<text x='157.8' y='144.5' class='atom-5' style='font-size:27px;font-style:normal;font-weight:normal;fill-opacity:1;stroke:none;font-family:sans-serif;text-anchor:start;fill:#000000' >N</text>
<text x='197.0' y='121.9' class='atom-6' style='font-size:27px;font-style:normal;font-weight:normal;fill-opacity:1;stroke:none;font-family:sans-serif;text-anchor:start;fill:#000000' >C</text>
<text x='215.8' y='121.9' class='atom-6' style='font-size:27px;font-style:normal;font-weight:normal;fill-opacity:1;stroke:none;font-family:sans-serif;text-anchor:start;fill:#000000' >H</text>
<text x='234.5' y='132.7' class='atom-6' style='font-size:17px;font-style:normal;font-weight:normal;fill-opacity:1;stroke:none;font-family:sans-serif;text-anchor:start;fill:#000000' >3</text>
<text x='157.9' y='189.8' class='atom-7' style='font-size:27px;font-style:normal;font-weight:normal;fill-opacity:1;stroke:none;font-family:sans-serif;text-anchor:start;fill:#000000' >C</text>
<text x='176.6' y='189.8' class='atom-7' style='font-size:27px;font-style:normal;font-weight:normal;fill-opacity:1;stroke:none;font-family:sans-serif;text-anchor:start;fill:#000000' >H</text>
<text x='195.4' y='200.7' class='atom-7' style='font-size:17px;font-style:normal;font-weight:normal;fill-opacity:1;stroke:none;font-family:sans-serif;text-anchor:start;fill:#000000' >3</text>
</svg>

<svg height="256" viewBox="0 0 256 256" width="256" xmlns="http://www.w3.org/2000/svg"><path d="m0 0h256v256h-256z" fill="#fff"/><path d="m87.6 176.3v-30.2" fill="none" stroke="#000" stroke-width="2"/><path d="m78 125.5-20-11.5" fill="none" stroke="#000" stroke-width="2"/><path d="m97.2 125.4 29.6-17.1" fill="none" stroke="#000" stroke-width="2"/><path d="m130.2 110.3v-32.1" fill="none" stroke="#000" stroke-width="2"/><path d="m123.4 110.3v-32.1" fill="none" stroke="#000" stroke-width="2"/><path d="m126.8 108.3 29.6 17.1" fill="none" stroke="#000" stroke-width="2"/><path d="m175.6 125.4 19.9-11.5" fill="none" stroke="#000" stroke-width="2"/><path d="m166 146v20.6" fill="none" stroke="#000" stroke-width="2"/><path d="m125.3 109.2 1.5-.9 1.5.9" fill="none" stroke="#000" stroke-miterlimit="10" stroke-width="2"/><path d="m110.263 176.257c-.002-1.697-2.265-1.696-2.263.002.001 1.697-2.262 1.699-2.264.002-.001-1.698-2.264-1.696-2.263.002.001 1.697-2.262 1.699-2.263.001-.002-1.697-2.265-1.695-2.264.002.002 1.698-2.262 1.699-2.263.002s-2.265-1.696-2.263.002c.001 1.697-2.262 1.699-2.263.002-.002-1.698-2.265-1.696-2.264.001.002 1.698-2.262 1.7-2.263.002-.001-1.697-2.265-1.695-2.263.002.001 1.697-2.262 1.699-2.264.002-.001-1.698-2.264-1.696-2.263.002.001 1.697-2.262 1.699-2.263.001-.002-1.697-2.265-1.695-2.263.002.001 1.698-2.262 1.7-2.264.002-.001-1.697-2.264-1.696-2.263.002.001 1.697-2.262 1.699-2.263.002-.002-1.698-2.265-1.696-2.264.002.002 1.697-2.262 1.699-2.263.001" fill="none" stroke="#7f7f7f" stroke-width="2"/><g font-family="sans-serif"><text font-size="27" x="79.4" y="144.6">N</text><text font-size="27" x="12.8" y="122">H</text><text font-size="17" x="31.5" y="132.9">3</text><text font-size="27" x="40.2" y="122">C</text><text font-size="27" x="118.6" y="76.7">O</text><text font-size="27" x="157.8" y="144.5">N</text><text font-size="27" x="197" y="121.9">C</text><text font-size="27" x="215.8" y="121.9">H</text><text font-size="17" x="234.5" y="132.7">3</text><text font-size="27" x="157.9" y="189.8">C</text><text font-size="27" x="176.6" y="189.8">H</text><text font-size="17" x="195.4" y="200.7">3</text></g></svg>
